src/img/icons/icon-shipping.svg

<svg width="60" height="60" viewBox="0 0 60 60" fill="none">
<g clip-path="url(#clip0_0_1411)">
<path fill-rule="evenodd" clip-rule="evenodd" d="M-6e-05 -6e-05H59.9999V59.9998H-6e-05V-6e-05Z" fill="#FFB534"/>
<path fill-rule="evenodd" clip-rule="evenodd" d="M46.1628 24.504L47.1987 28.5975C48.782 28.8359 49.999 30.1899 49.999 31.8199V38.4221C49.999 38.7633 49.7186 39.0408 49.3726 39.0408H47.3254C47.3256 39.0541 47.3266 39.0682 47.3266 39.0823C47.3266 41.2434 45.547 43.0014 43.3597 43.0014C41.1725 43.0014 39.3929 41.2434 39.3929 39.0823C39.3929 39.0682 39.3938 39.0541 39.394 39.0408H25.2785C25.2785 39.0468 25.2788 39.053 25.279 39.0593V39.0594V39.0594V39.0594C25.2792 39.0669 25.2795 39.0746 25.2795 39.0823C25.2795 41.2434 23.5 43.0014 21.3126 43.0014C19.1254 43.0014 17.3459 41.2434 17.3459 39.0823L17.3461 39.0701L17.3464 39.0594C17.3466 39.053 17.3469 39.0468 17.3469 39.0408H13.9636C13.2499 39.0408 12.6692 38.4669 12.6692 37.7612V36.3995H10.6232C10.2773 36.3995 9.99684 36.1233 9.99684 35.7805C9.99684 35.4394 10.2773 35.1619 10.6232 35.1619H16.636C16.982 35.1619 17.2624 35.4394 17.2624 35.7805C17.2624 36.1233 16.982 36.3995 16.636 36.3995H13.9219V37.7612C13.9219 37.7846 13.9406 37.8027 13.9636 37.8027H17.5639C18.1019 36.2682 19.5786 35.1619 21.3126 35.1619C23.0468 35.1619 24.5235 36.2682 25.0615 37.8027H38.0568V33.1405C38.0568 32.799 38.3372 32.5219 38.6832 32.5219C39.029 32.5219 39.3095 32.799 39.3095 33.1405V37.8027H39.611C40.1489 36.2682 41.6258 35.1623 43.3598 35.1623C45.0938 35.1623 46.5706 36.2682 47.1085 37.8027H48.7463V35.0797H48.0364C46.9544 35.0797 46.074 34.2098 46.074 33.1405V31.8199C46.074 31.4783 46.3544 31.2013 46.7003 31.2013H48.6479C48.3827 30.3893 47.6107 29.7993 46.7016 29.7985H46.6998H46.6982H39.3095V30.4997C39.3095 30.8424 39.029 31.1195 38.6832 31.1195C38.3372 31.1195 38.0568 30.8424 38.0568 30.4997V19.2771C38.0568 19.2549 38.0381 19.236 38.0151 19.236H13.9636C13.9406 19.236 13.9219 19.2549 13.9219 19.2771V30.4993C13.9219 30.842 13.6414 31.1187 13.2956 31.1187C12.9496 31.1187 12.6692 30.842 12.6692 30.4993V19.2771C12.6692 18.5723 13.2499 17.9979 13.9636 17.9979H38.0151C38.7288 17.9979 39.3095 18.5723 39.3095 19.2771V20.6388H44.0279C45.4784 20.6388 46.6586 21.8051 46.6586 23.2385V23.8982C46.6586 24.1958 46.446 24.444 46.1628 24.504ZM44.8751 24.5173H39.3095V28.5612H45.8981L44.8751 24.5173ZM45.4059 23.2385C45.4059 22.4874 44.7877 21.8768 44.0279 21.8768H39.3095V23.2792H45.4059V23.2385ZM18.5986 39.0823C18.5986 40.5611 19.8162 41.7633 21.3126 41.7633C22.8092 41.7633 24.0268 40.5611 24.0268 39.0823C24.0268 37.603 22.8092 36.3995 21.3126 36.3995C19.8162 36.3995 18.5986 37.603 18.5986 39.0823ZM40.6457 39.0823C40.6457 40.5611 41.8632 41.7633 43.3598 41.7633C44.8563 41.7633 46.074 40.5611 46.074 39.0823C46.074 37.603 44.8563 36.3995 43.3598 36.3995C41.8632 36.3995 40.6457 37.603 40.6457 39.0823ZM47.3267 33.1405C47.3267 33.5271 47.645 33.8421 48.0364 33.8421H48.7463V32.4389H47.3267V33.1405ZM20.0182 39.0823C20.0182 38.3762 20.5989 37.8027 21.3126 37.8027C22.0265 37.8027 22.6071 38.3762 22.6071 39.0823C22.6071 39.7875 22.0265 40.361 21.3126 40.361C20.5989 40.361 20.0182 39.7875 20.0182 39.0823ZM43.3598 37.8027C42.646 37.8027 42.0654 38.3762 42.0654 39.0823C42.0654 39.7875 42.646 40.361 43.3598 40.361C44.0736 40.361 44.6542 39.7875 44.6542 39.0823C44.6542 38.3762 44.0736 37.8027 43.3598 37.8027ZM26.6575 36.3995C26.3115 36.3995 26.0312 36.1233 26.0312 35.7805C26.0312 35.4394 26.3115 35.1619 26.6575 35.1619H36.0108C36.3567 35.1619 36.6371 35.4394 36.6371 35.7805C36.6371 36.1233 36.3567 36.3995 36.0108 36.3995H26.6575ZM11.9594 33.7599H19.9765C20.3224 33.7599 20.6029 33.482 20.6029 33.1405C20.6029 32.7985 20.3224 32.5219 19.9765 32.5219H11.9594C11.6134 32.5219 11.333 32.7985 11.333 33.1405C11.333 33.482 11.6134 33.7599 11.9594 33.7599ZM25.3213 29.6249L30.8912 24.1205C31.1358 23.8793 31.5324 23.8793 31.777 24.1205C32.0216 24.3626 32.0216 24.7549 31.777 24.9961L25.7642 30.937C25.6418 31.0583 25.4815 31.1187 25.3213 31.1187C25.161 31.1187 25.0006 31.0583 24.8784 30.937L21.5378 27.6369C21.2933 27.3949 21.2933 27.0026 21.5378 26.7613C21.7824 26.5193 22.1791 26.5193 22.4236 26.7613L25.3213 29.6249Z" fill="white"/>
</g>
<defs>
<clipPath id="clip0_0_1411">
<rect width="60" height="60" fill="white"/>
</clipPath>
</defs>
</svg>

<svg width="60" height="60" fill="none"><g clip-path="url(#clip0_0_1411)" fill-rule="evenodd" clip-rule="evenodd"><path d="M0 0h60v60H0V0z" fill="#FFB534"/><path d="M46.163 24.504l1.036 4.093c1.583.239 2.8 1.593 2.8 3.223v6.602c0 .341-.28.619-.626.619h-2.048l.002.041c0 2.161-1.78 3.92-3.967 3.92-2.188 0-3.967-1.759-3.967-3.92l.001-.041H25.279v.041c0 2.161-1.779 3.92-3.966 3.92-2.188 0-3.967-1.759-3.967-3.92v-.042h-3.382a1.288 1.288 0 01-1.295-1.279V36.4h-2.046a.622.622 0 01-.626-.62c0-.34.28-.618.626-.618h6.013c.346 0 .626.277.626.619 0 .342-.28.619-.626.619h-2.714v1.361c0 .024.019.042.042.042h3.6a3.97 3.97 0 013.749-2.641 3.97 3.97 0 013.748 2.64h12.996v-4.661c0-.342.28-.62.626-.62s.627.278.627.62v4.662h.301a3.97 3.97 0 013.749-2.64 3.97 3.97 0 013.748 2.64h1.638V35.08h-.71a1.953 1.953 0 01-1.962-1.94v-1.32c0-.342.28-.619.626-.619h1.948a2.048 2.048 0 00-1.946-1.402h-7.393v.7c0 .343-.28.62-.626.62a.623.623 0 01-.626-.62V19.278a.042.042 0 00-.042-.041H13.964a.042.042 0 00-.042.041V30.5c0 .343-.28.62-.626.62a.623.623 0 01-.627-.62V19.277c0-.705.58-1.28 1.295-1.28h24.051c.714 0 1.294.575 1.294 1.28v1.362h4.719c1.45 0 2.63 1.166 2.63 2.6v.66a.622.622 0 01-.495.605zm-1.288.013H39.31v4.044h6.59l-1.024-4.044zm.53-1.279a1.37 1.37 0 00-1.377-1.361H39.31v1.402h6.096v-.04zM18.6 39.082c0 1.48 1.217 2.681 2.714 2.681 1.496 0 2.714-1.202 2.714-2.68 0-1.48-1.218-2.683-2.714-2.683-1.497 0-2.714 1.203-2.714 2.682zm22.047 0c0 1.48 1.217 2.681 2.714 2.681 1.496 0 2.714-1.202 2.714-2.68 0-1.48-1.218-2.683-2.714-2.683-1.497 0-2.714 1.203-2.714 2.682zm6.68-5.941c0 .386.319.701.71.701h.71V32.44h-1.42v.702zm-27.308 5.941c0-.706.58-1.28 1.295-1.28.713 0 1.294.574 1.294 1.28 0 .706-.58 1.279-1.294 1.279a1.288 1.288 0 01-1.295-1.279zm23.342-1.28c-.714 0-1.295.574-1.295 1.28 0 .706.581 1.279 1.295 1.279s1.294-.573 1.294-1.279-.58-1.28-1.294-1.28zM26.657 36.4a.622.622 0 01-.626-.62c0-.34.28-.618.627-.618h9.353c.346 0 .626.277.626.619 0 .342-.28.619-.626.619h-9.354zM11.96 33.76h8.018a.623.623 0 00.626-.62.622.622 0 00-.627-.618H11.96a.622.622 0 00-.626.619c0 .341.28.619.626.619zm13.362-4.135l5.57-5.505a.633.633 0 01.886 0 .614.614 0 010 .876l-6.013 5.941a.627.627 0 01-.886 0l-3.34-3.3a.614.614 0 010-.876.631.631 0 01.886 0l2.897 2.864z" fill="#fff"/></g><defs><clipPath id="clip0_0_1411"><path fill="#fff" d="M0 0h60v60H0z"/></clipPath></defs></svg>
